X: 076
T: Ballybay Tailor (jig)
N: 022017
C: BB
L: 1/8
M: 6/8
R: jig
Q: 1/4=160
K: G
D|"G"DGB "D"ABA|"G"GBd "Em"e2f|"G"gfg "C"edc|"G"BdB "D7"cAF|
"G"DGB "D"ABA|"G"GBd "Em"efg|"Am"age "D"dBA|"G"G3 G2 :|
e|"Em"gfe "D"dfa|"G"gfg "Am"a^ga|"Em"b2g "D"afd|"C"ece "D"dBA|
"G"DGB "D"ABA|"G"GBd "C"e2f|"G"gdB "D"AFD|"G"G3 G2 :|
%%%%%%%%%%%%%%%%%%%%
